X:166
T:Sir Roger de Coverley
M:9/8
L:1/8
K:G
G2 G G2 e dBG | E2 A ABG FED | 
G2 G G2 e def | g2 G GAG FED :|| 
dBd eBe dBG | E2 A ABG FED | 
dBd eBe def | g2 G GAG FED :|| 
gag f2 e dBG | E2 A ABG FED | 
gag f2 e def | g2 G GAG FED :|| 
dcB cBA BAG | E2 A ABG FED | 
dcB cBA Bcd | g2 G GAG FED :|| 

